svgs/fasthub_re.svg

<svg width="192" height="192" viewBox="0 0 192 192" fill="none" xmlns="http://www.w3.org/2000/svg">
<path d="M99.2615 60.8355C99.2615 56.3566 102.892 52.7258 107.371 52.7258C111.85 52.7258 115.481 56.3566 115.481 60.8355C115.481 65.3144 111.85 68.9452 107.371 68.9452C102.892 68.9452 99.2615 65.3144 99.2615 60.8355Z" stroke="black" stroke-width="8" stroke-linecap="round" stroke-linejoin="round"/>
<path d="M123.591 85.1647C123.591 80.6858 127.221 77.055 131.7 77.055C136.179 77.055 139.81 80.6858 139.81 85.1647C139.81 89.6436 136.179 93.2744 131.7 93.2744C127.221 93.2744 123.591 89.6436 123.591 85.1647Z" stroke="black" stroke-width="8" stroke-linecap="round" stroke-linejoin="round"/>
<path d="M110.975 53.1763C110.975 53.1763 112.772 47.7608 114.58 44.616C116.211 41.7786 117.417 40.3525 119.536 37.8579C121.952 35.013 123.228 33.2293 126.294 31.0998C129.463 28.8981 131.568 28.0102 135.305 27.0449C138.559 26.2041 140.504 26.1916 143.865 26.1439C147.751 26.0886 150.089 25.8176 153.777 27.0449C156.841 28.0649 158.62 28.8999 160.985 31.0998C163.703 33.6277 164.756 35.6922 165.941 39.2095C167.182 42.8929 166.951 45.2362 166.842 49.1214C166.738 52.8524 166.467 54.9804 165.491 58.5828C164.336 62.8418 163.637 65.4178 160.985 68.9452C158.966 71.6323 157.37 72.79 154.678 74.8023C151.898 76.8796 150.16 77.8326 147.019 79.3077C144.297 80.5857 139.81 82.0109 139.81 82.0109" stroke="black" stroke-width="8" stroke-linecap="round" stroke-linejoin="round"/>
<path d="M124.492 90.5712C124.492 90.5712 122.015 96.241 122.239 100.033C122.472 103.98 124.075 105.957 125.843 109.494C127.611 113.03 129.467 114.525 131.25 118.054C133.283 122.08 134.494 124.431 135.305 128.867C136.127 133.367 135.76 136.029 135.305 140.581C134.858 145.045 134.984 147.797 133.052 151.845C131.43 155.243 130.201 157.236 127.195 159.504C123.374 162.387 115.481 163.108 115.481 163.108C115.481 163.108 122.254 159.438 122.239 155.449C122.23 153.162 119.161 152.176 119.986 150.043C120.87 147.757 124.133 149.545 125.843 147.79C128.205 145.365 126.981 142.607 127.195 139.23C127.339 136.947 128.258 135.398 127.195 133.373C125.766 130.652 120.776 133.188 119.986 130.219C119.208 127.293 124.019 126.901 124.492 123.911C125.105 120.025 121.872 118.353 119.986 114.9C118.323 111.855 117.335 110.175 115.481 107.241C112.842 111.464 111.362 113.831 108.723 118.054C106.083 122.277 111.527 123.817 110.074 127.065C108.497 130.591 104.094 129.146 101.514 132.021C98.2805 135.624 96.329 139.028 97.4591 143.735C98.4483 147.855 105.197 147.641 104.668 151.845C104.2 155.556 97.9611 154.445 97.4591 158.152C97.1081 160.744 100.832 162.096 99.7118 164.46C98.2807 167.481 94.0798 166.073 91.1515 164.46C87.2011 162.284 87.6708 158.12 87.0967 153.647C86.441 148.538 87.771 145.607 88.8988 140.581C89.9468 135.911 90.7293 133.313 92.5032 128.867C93.8741 125.432 94.7536 123.536 96.558 120.307C98.2959 117.197 99.603 115.654 101.514 112.648C103.295 109.846 106.019 105.439 106.019 105.439L94.3052 114.9L87.9977 120.757L82.5912 130.219L79.4374 140.581L78.0858 151.845C78.0858 151.845 76.813 160.295 72.6793 161.306C69.0862 162.185 64.9416 160.858 64.119 157.251C63.3807 154.015 68.2462 153.341 68.6244 150.043C69.0907 145.977 63.0371 144.528 64.119 140.581C65.1899 136.675 70.3011 138.003 72.6793 134.724C75.4357 130.924 73.4999 127.311 75.3825 123.01C77.3593 118.494 80.5141 118.539 83.84 114.9C86.5313 111.956 88.2927 110.515 91.4992 108.142C93.9973 106.294 96.0816 104.779 98.0199 103.093M36.1855 128.867C34.3225 132.464 38.2381 136.037 42.0425 137.427C45.2211 138.59 47.4741 137.366 50.6028 136.076C54.0837 134.64 55.2268 132.447 58.262 130.219C62.2355 127.301 63.2294 125.484 66.8224 122.109C70.5678 118.591 72.4144 115.941 75.3825 111.747C76.6405 109.969 77.9902 108.843 79.28 107.657M36.1855 128.867C37.836 125.681 42.4168 129.335 45.1963 127.065C47.7566 124.974 45.9301 121.045 48.8006 119.406M36.1855 128.867C36.1855 128.867 33.5059 123.737 33.9329 120.307C34.4213 116.383 37.5598 115.554 40.2405 112.648C42.7933 109.88 44.6564 108.704 47.8995 106.791C51.362 104.748 53.4689 102.539 56.4599 101.835C59.451 101.131 61.128 100.736 64.119 100.033C67.11 99.3288 68.5052 100.033 68.5052 100.033M48.8006 119.406C51.7195 117.739 53.2554 119.97 56.4599 118.955C59.9016 117.865 60.8199 115.346 63.2181 112.648C64.5474 111.152 65.7917 110.052 66.8224 108.827M48.8006 119.406C48.8006 119.406 50.589 114.73 52.8557 112.648C55.4079 110.303 57.5607 109.692 60.9652 109.043C63.2138 108.615 66.8224 108.827 66.8224 108.827M85.745 75.7033C86.6698 78.9732 84.0287 80.734 82.5912 83.8131C81.8876 85.3201 81.4495 86.6435 80.9203 87.868M85.745 75.7033C84.6519 71.8389 80.2061 72.7659 76.7341 70.7474C73.5254 68.882 72.3324 65.9553 68.6244 65.7914C65.3928 65.6487 64.1622 69.4378 60.9652 68.9452C57.1514 68.3576 57.8435 63.0277 54.2071 61.7366C51.5542 60.7946 49.702 60.9519 46.9984 61.7366C44.4192 62.4852 43.22 63.6401 41.1414 65.3409C38.9247 67.1547 39.047 70.623 36.1855 70.7474C33.3239 70.8718 31.5775 68.5421 30.779 65.7914C29.5814 61.6664 33.9747 59.7416 37.0865 56.7806C39.5614 54.4257 41.0293 52.827 44.2952 51.8247C47.4911 50.8439 49.52 51.6007 52.8555 51.8247C56.5795 52.0747 58.7101 52.2158 62.3168 53.1763C65.9792 54.1517 67.8997 55.1641 71.3276 56.7806C75.5321 58.7634 77.4261 60.7866 81.6901 62.6377C85.2627 64.1886 87.2849 65.3241 91.1515 65.7914C94.475 66.1931 99.7118 65.3409 99.7118 65.3409M85.745 75.7033C85.745 75.7033 81.1677 77.4848 78.0858 77.9561C74.6073 78.4879 72.5932 78.0321 69.0751 77.9561C65.2012 77.8723 62.888 77.9886 59.0133 77.9561C54.2596 77.9161 51.702 75.887 46.9984 76.5768C42.6918 77.2083 40.3053 77.8755 36.1855 79.28C33.1238 80.3237 30.7538 81.4674 28.5264 83.8131C24.7707 87.7684 23.1286 98.5634 28.5264 97.7799C31.1382 97.4007 31.3584 94.3056 33.9329 93.725C36.7636 93.0866 38.4927 96.7123 41.1414 95.5271C44.094 94.2059 41.74 89.8516 44.2952 87.868C46.6945 86.0054 48.9305 86.8007 51.9545 86.5163C55.458 86.1869 57.4507 86.3413 60.9652 86.5163C65.5645 86.7453 68.0794 87.6505 72.6793 87.868C75.894 88.0199 80.9203 87.868 80.9203 87.868M80.9203 87.868C80.2967 89.3108 79.5464 90.6162 78.0858 91.9228C75.1388 94.5589 70.6946 92.1585 68.6244 95.5271C67.5087 97.3427 67.9633 98.6427 68.5052 100.033M68.5052 100.033C69.001 101.304 69.5699 102.652 69.0751 104.538C68.5916 106.381 67.8038 107.661 66.8224 108.827M84.9926 97.7799C85.4888 96.4761 86.0844 95.1672 87.0967 93.725C89.3838 90.4663 90.876 88.5387 94.3052 86.5163C97.1808 84.8205 99.5765 82.0559 102.415 83.8131C103.534 84.5058 104.154 85.4355 104.47 86.5163M84.9926 97.7799C84.2916 99.6222 83.7893 101.454 82.5912 103.637C81.6197 105.407 80.4756 106.558 79.28 107.657M84.9926 97.7799C84.9926 97.7799 91.5474 96.9833 95.2065 95.0766C99.5748 92.8003 104.47 86.5163 104.47 86.5163M104.47 86.5163C104.823 87.7201 107.051 90.4628 106.921 91.9228C106.616 95.3255 104.19 96.5393 101.965 99.1315C100.66 100.651 99.3757 101.914 98.0199 103.093M79.28 107.657L98.0199 103.093" stroke="black" stroke-width="6" stroke-linecap="round" stroke-linejoin="round"/>
<path d="M164.065 62.1898C172.115 78.3948 174.119 96.94 169.716 114.49C165.314 132.041 154.795 147.445 140.05 157.932C125.305 168.42 107.303 173.302 89.2794 171.702C71.2562 170.102 54.3952 162.124 41.7285 149.203C29.0619 136.283 21.4207 119.266 20.1791 101.215C18.9376 83.1634 24.1771 65.2613 34.9555 50.7278C45.7339 36.1944 61.3439 25.9832 78.9783 21.9307C96.6127 17.8782 115.114 20.2502 131.156 28.6201" stroke="black" stroke-width="8"/>
</svg>

<svg xmlns="http://www.w3.org/2000/svg" width="192" height="192" fill="none" viewBox="0 0 192 192"><path stroke="#000" stroke-linecap="round" stroke-linejoin="round" stroke-width="8" d="M99.261 60.836a8.11 8.11 0 1 1 16.22 0 8.11 8.11 0 0 1-16.22 0Zm24.33 24.329a8.11 8.11 0 1 1 16.218 0 8.11 8.11 0 0 1-16.218 0Z"/><path stroke="#000" stroke-linecap="round" stroke-linejoin="round" stroke-width="8" d="M110.975 53.176s1.797-5.415 3.605-8.56c1.631-2.837 2.837-4.264 4.956-6.758 2.416-2.845 3.692-4.629 6.758-6.758 3.169-2.202 5.274-3.09 9.011-4.055 3.254-.84 5.199-.853 8.56-.901 3.886-.055 6.224-.326 9.912.9 3.064 1.02 4.843 1.856 7.208 4.056 2.718 2.528 3.771 4.592 4.956 8.11 1.241 3.683 1.01 6.026.901 9.911-.104 3.731-.375 5.86-1.351 9.462-1.155 4.259-1.854 6.835-4.506 10.362-2.019 2.687-3.615 3.845-6.307 5.857-2.78 2.078-4.518 3.03-7.659 4.506-2.722 1.278-7.209 2.703-7.209 2.703"/><path stroke="#000" stroke-linecap="round" stroke-linejoin="round" stroke-width="6" d="M124.492 90.571s-2.477 5.67-2.253 9.462c.233 3.947 1.836 5.924 3.604 9.461 1.768 3.536 3.624 5.031 5.407 8.56 2.033 4.026 3.244 6.377 4.055 10.813.822 4.5.455 7.162 0 11.714-.447 4.464-.321 7.216-2.253 11.264-1.622 3.398-2.851 5.391-5.857 7.659-3.821 2.883-11.714 3.604-11.714 3.604s6.773-3.67 6.758-7.659c-.009-2.287-3.078-3.273-2.253-5.406.884-2.286 4.147-.498 5.857-2.253 2.362-2.425 1.138-5.183 1.352-8.56.144-2.283 1.063-3.832 0-5.857-1.429-2.721-6.419-.185-7.209-3.154-.778-2.926 4.033-3.318 4.506-6.308.613-3.886-2.62-5.558-4.506-9.011-1.663-3.045-2.651-4.725-4.505-7.659l-6.758 10.813c-2.64 4.223 2.804 5.763 1.351 9.011-1.577 3.526-5.98 2.081-8.56 4.956-3.233 3.603-5.185 7.007-4.055 11.714.99 4.12 7.738 3.906 7.209 8.11-.468 3.711-6.707 2.6-7.209 6.307-.35 2.592 3.373 3.944 2.253 6.308-1.431 3.021-5.632 1.613-8.56 0-3.95-2.176-3.481-6.34-4.055-10.813-.656-5.109.674-8.04 1.802-13.066 1.048-4.67 1.83-7.268 3.604-11.714 1.371-3.435 2.25-5.331 4.055-8.56 1.738-3.11 3.045-4.653 4.956-7.659a865.803 865.803 0 0 0 4.505-7.209L94.305 114.9l-6.307 5.857-5.407 9.462-3.154 10.362-1.351 11.264s-1.273 8.45-5.407 9.461c-3.593.879-7.737-.448-8.56-4.055-.738-3.236 4.127-3.91 4.505-7.208.467-4.066-5.587-5.515-4.505-9.462 1.07-3.906 6.182-2.578 8.56-5.857 2.757-3.8.82-7.413 2.703-11.714 1.977-4.516 5.132-4.471 8.458-8.11 2.691-2.944 4.453-4.385 7.66-6.758 2.497-1.848 4.582-3.363 6.52-5.049m-61.834 25.774c-1.864 3.597 2.052 7.17 5.856 8.56 3.18 1.163 5.432-.061 8.56-1.351 3.482-1.436 4.625-3.629 7.66-5.857 3.974-2.918 4.967-4.735 8.56-8.11 3.746-3.518 5.592-6.168 8.56-10.362 1.258-1.778 2.608-2.904 3.898-4.09m-43.095 21.21c1.651-3.186 6.232.468 9.011-1.802 2.56-2.091.734-6.02 3.605-7.659m-12.616 9.461s-2.68-5.13-2.252-8.56c.488-3.924 3.627-4.753 6.307-7.659 2.553-2.768 4.416-3.944 7.66-5.857 3.462-2.043 5.569-4.252 8.56-4.956l7.659-1.802c2.991-.704 4.386 0 4.386 0m-19.704 19.373c2.918-1.667 4.454.564 7.659-.451 3.442-1.09 4.36-3.609 6.758-6.307 1.33-1.496 2.574-2.596 3.604-3.821m-18.021 10.579s1.788-4.676 4.055-6.758c2.552-2.345 4.705-2.956 8.11-3.605 2.248-.428 5.856-.216 5.856-.216m18.923-33.124c.925 3.27-1.716 5.031-3.154 8.11-.703 1.507-1.141 2.83-1.67 4.055m4.824-12.165c-1.093-3.864-5.539-2.937-9.01-4.956-3.21-1.865-4.403-4.792-8.11-4.956-3.232-.142-4.463 3.647-7.66 3.154-3.814-.587-3.122-5.917-6.758-7.208-2.653-.942-4.505-.785-7.209 0-2.579.748-3.778 1.903-5.857 3.604-2.216 1.814-2.094 5.282-4.956 5.406-2.861.125-4.608-2.205-5.406-4.956-1.198-4.125 3.196-6.05 6.308-9.01 2.474-2.355 3.942-3.954 7.208-4.956 3.196-.981 5.225-.224 8.56 0 3.725.25 5.855.39 9.462 1.351 3.662.976 5.583 1.988 9.01 3.605 4.205 1.982 6.1 4.006 10.363 5.857 3.573 1.55 5.595 2.686 9.462 3.153 3.323.402 8.56-.45 8.56-.45M85.745 75.703s-4.577 1.782-7.66 2.253c-3.478.532-5.492.076-9.01 0-3.874-.084-6.187.033-10.062 0-4.753-.04-7.311-2.069-12.015-1.38-4.306.632-6.693 1.3-10.813 2.704-3.061 1.044-5.431 2.187-7.659 4.533-3.755 3.955-5.397 14.75 0 13.967 2.612-.38 2.832-3.474 5.407-4.055 2.83-.638 4.56 2.987 7.208 1.802 2.953-1.321.599-5.675 3.154-7.659 2.4-1.863 4.636-1.067 7.66-1.352 3.503-.33 5.496-.175 9.01 0 4.6.23 7.114 1.134 11.714 1.352 3.215.152 8.241 0 8.241 0m0 0c-.623 1.443-1.374 2.748-2.834 4.055-2.947 2.636-7.391.236-9.462 3.604-1.115 1.816-.66 3.116-.119 4.506m0 0c.496 1.271 1.065 2.619.57 4.505-.483 1.843-1.271 3.123-2.253 4.289m18.17-11.047c.497-1.304 1.092-2.613 2.105-4.055 2.287-3.259 3.779-5.186 7.208-7.209 2.876-1.696 5.271-4.46 8.11-2.703 1.119.693 1.739 1.623 2.055 2.703M84.993 97.78c-.701 1.842-1.204 3.674-2.402 5.857-.971 1.77-2.115 2.921-3.311 4.02m5.713-9.877s6.554-.797 10.214-2.703c4.368-2.277 9.263-8.56 9.263-8.56m0 0c.353 1.203 2.581 3.946 2.451 5.406-.305 3.403-2.731 4.616-4.956 7.209a37.737 37.737 0 0 1-3.945 3.961m-18.74 4.564 18.74-4.564"/><path stroke="#000" stroke-width="8" d="M164.065 62.19a75.992 75.992 0 0 1 5.651 52.3 75.995 75.995 0 0 1-80.437 57.212A76 76 0 1 1 131.156 28.62"/></svg>
